icons/svg/seamark/beacon_white_pile.svg

<?xml version="1.0" encoding="UTF-8" standalone="no"?>
<svg
   xmlns:dc="http://purl.org/dc/elements/1.1/"
   xmlns:cc="http://creativecommons.org/ns#"
   xmlns:rdf="http://www.w3.org/1999/02/22-rdf-syntax-ns#"
   xmlns:svg="http://www.w3.org/2000/svg"
   xmlns="http://www.w3.org/2000/svg"
   xmlns:sodipodi="http://sodipodi.sourceforge.net/DTD/sodipodi-0.dtd"
   xmlns:inkscape="http://www.inkscape.org/namespaces/inkscape"
   width="580"
   height="580"
   id="svg2"
   version="1.1"
   inkscape:version="0.48.4 r9939"
   sodipodi:docname="beacon_white_pile.svg">
  <defs
     id="defs13">
    <inkscape:path-effect
       effect="gears"
       id="path-effect3774"
       is_visible="true"
       teeth="6"
       phi="-1.2" />
    <inkscape:path-effect
       effect="bend_path"
       id="path-effect3772"
       is_visible="false"
       bendpath="m 95.790098,316.51174 c 144.429032,-206.42506 223.313032,-11.7428 339.548092,0"
       prop_scale="1.19"
       scale_y_rel="false"
       vertical="false"
       bendpath-nodetypes="cc" />
  </defs>
  <sodipodi:namedview
     pagecolor="#ffffff"
     bordercolor="#666666"
     borderopacity="1"
     objecttolerance="10"
     gridtolerance="10"
     guidetolerance="10"
     inkscape:pageopacity="0"
     inkscape:pageshadow="2"
     inkscape:window-width="1920"
     inkscape:window-height="1004"
     id="namedview11"
     showgrid="false"
     inkscape:zoom="0.81379307"
     inkscape:cx="144.96908"
     inkscape:cy="357.6367"
     inkscape:window-x="1680"
     inkscape:window-y="0"
     inkscape:window-maximized="1"
     inkscape:current-layer="svg2" />
  <metadata
     id="metadata2975">image/svg+xmlen<rdf:RDF>
  <cc:Work
     rdf:about="">
    <dc:format>image/svg+xml</dc:format>
    <dc:type
       rdf:resource="http://purl.org/dc/dcmitype/StillImage" />
    <dc:title />
  </cc:Work>
</rdf:RDF>
</metadata>
  <path
     style="opacity:0.42608696000000001;color:#000000;fill:#8d8d8d;fill-opacity:1;fill-rule:nonzero;stroke:#a35151;stroke-width:0;stroke-linecap:round;stroke-linejoin:miter;stroke-miterlimit:4;stroke-opacity:1;stroke-dashoffset:0;marker:none;visibility:visible;display:inline;overflow:visible;enable-background:accumulate;stroke-dasharray:none"
     d="m 236.46875,214.34375 c -5.23694,-0.003 -10.44295,2.15091 -14.14602,5.85398 -3.70307,3.70307 -5.85745,8.90908 -5.85398,14.14602 l 0,55.53125 0,123.90625 0,70.4375 -26.9375,0 c -5.23694,-0.003 -10.44295,2.15091 -14.14602,5.85398 -3.70307,3.70307 -5.85745,8.90908 -5.85398,14.14602 l 0,25 c -0.003,5.23694 2.15091,10.44295 5.85398,14.14602 3.70307,3.70307 8.90908,5.85745 14.14602,5.85398 l 38.96875,0 c 11.212,18.63781 31.45942,31.21875 54.59375,31.21875 23.1345,0 43.38166,-12.58141 54.59375,-31.21875 l 38.96875,0 c 5.23694,0.003 10.44295,-2.15091 14.14602,-5.85398 3.70307,-3.70307 5.85745,-8.90908 5.85398,-14.14602 l 0,-25 c 0.003,-5.23694 -2.15091,-10.44295 -5.85398,-14.14602 -3.70307,-3.70307 -8.90908,-5.85745 -14.14602,-5.85398 l -27,0 0,-70.4375 0,-123.90625 0,-55.53125 c 0.003,-5.23694 -2.15091,-10.44295 -5.85398,-14.14602 -3.70307,-3.70307 -8.90908,-5.85745 -14.14602,-5.85398 z"
     id="path3827"
     inkscape:connector-curvature="0"
     sodipodi:nodetypes="cscccccsccsccsccsccscccccscc" />
  <rect
     style="color:#000000;fill:#fefefe;fill-opacity:1;fill-rule:nonzero;stroke:#a35151;stroke-width:0;stroke-linecap:round;stroke-linejoin:miter;stroke-miterlimit:4;stroke-opacity:1;stroke-dasharray:none;stroke-dashoffset:0;marker:none;visibility:visible;display:inline;overflow:visible;enable-background:accumulate"
     id="rect2987"
     width="93.189789"
     height="270.51291"
     x="236.55867"
     y="241.42267" />
  <path
     style="fill:none;stroke:#000000;stroke-width:25;stroke-linecap:butt;stroke-linejoin:miter;stroke-miterlimit:4;stroke-opacity:1;stroke-dasharray:none"
     d="m 189.63633,516.57012 187.12226,0"
     id="path3759"
     inkscape:connector-curvature="0"
     sodipodi:nodetypes="cc" />
  <path
     sodipodi:type="arc"
     style="color:#000000;fill:#fefefe;fill-opacity:1;stroke:#000000;stroke-width:25;stroke-linecap:round;stroke-linejoin:round;stroke-miterlimit:10;stroke-opacity:1;stroke-dasharray:none;stroke-dashoffset:0;marker:none;visibility:visible;display:inline;overflow:visible;enable-background:accumulate"
     id="path3759-1"
     sodipodi:cx="210.27438"
     sodipodi:cy="76.036606"
     sodipodi:rx="40.838413"
     sodipodi:ry="40.838413"
     d="m 251.1128,76.036606 a 40.838413,40.838413 0 1 1 -81.67683,0 40.838413,40.838413 0 1 1 81.67683,0 z"
     transform="matrix(0.82289092,0,0,0.82289092,110.16458,453.8318)" />
  <rect
     style="opacity:0.128;color:#000000;fill:#000000;fill-opacity:1;fill-rule:nonzero;stroke:#a35151;stroke-width:0;stroke-linecap:round;stroke-linejoin:miter;stroke-miterlimit:4;stroke-opacity:1;stroke-dasharray:none;stroke-dashoffset:0;marker:none;visibility:visible;display:inline;overflow:visible;enable-background:accumulate"
     id="rect2987-6"
     width="24.376228"
     height="270.51291"
     x="305.37222"
     y="241.42267" />
</svg>

<svg width="580" height="580" viewBox="0 0 580 580" fill="none" xmlns="http://www.w3.org/2000/svg">
<g clip-path="url(#clip0)">
<path opacity="0.426087" d="M236.469 214.344C231.232 214.341 226.026 216.495 222.323 220.198C218.62 223.901 216.465 229.107 216.469 234.344V289.875V413.781V484.219H189.531C184.294 484.216 179.088 486.37 175.385 490.073C171.682 493.776 169.528 498.982 169.531 504.219V529.219C169.528 534.456 171.682 539.662 175.385 543.365C179.088 547.068 184.294 549.222 189.531 549.219H228.5C239.712 567.857 259.959 580.438 283.094 580.438C306.228 580.438 326.475 567.856 337.688 549.219H376.656C381.893 549.222 387.099 547.068 390.802 543.365C394.505 539.662 396.66 534.456 396.656 529.219V504.219C396.659 498.982 394.505 493.776 390.802 490.073C387.099 486.37 381.893 484.215 376.656 484.219H349.656V413.781V289.875V234.344C349.659 229.107 347.505 223.901 343.802 220.198C340.099 216.495 334.893 214.34 329.656 214.344H236.469Z" fill="#8D8D8D"/>
<path d="M329.748 241.423H236.559V511.936H329.748V241.423Z" fill="#FEFEFE"/>
<path d="M189.636 516.57H376.758" stroke="black" stroke-width="25"/>
<path d="M316.803 516.402C316.803 525.314 313.262 533.862 306.96 540.164C300.658 546.467 292.11 550.007 283.197 550.007C274.285 550.007 265.737 546.467 259.435 540.164C253.132 533.862 249.592 525.314 249.592 516.402C249.592 507.489 253.132 498.941 259.435 492.639C265.737 486.337 274.285 482.796 283.197 482.796C292.11 482.796 300.658 486.337 306.96 492.639C313.262 498.941 316.803 507.489 316.803 516.402V516.402Z" fill="#FEFEFE" stroke="black" stroke-width="20.5723" stroke-miterlimit="10" stroke-linecap="round" stroke-linejoin="round"/>
<path opacity="0.128" d="M329.748 241.423H305.372V511.936H329.748V241.423Z" fill="black"/>
</g>
<defs>
<clipPath id="clip0">
<path d="M0 0H580V580H0V0Z" fill="white"/>
</clipPath>
</defs>
</svg>
